dist/img/product/billboard.svg

<svg width="80" height="80" viewBox="0 0 80 80" fill="none" xmlns="http://www.w3.org/2000/svg">
<rect width="80" height="80" rx="5" fill="#D1327F"/>
<g clip-path="url(#clip0_121_9)">
<path d="M65 18H58V16H61C61.5299 15.9984 62.0377 15.7872 62.4125 15.4125C62.7872 15.0377 62.9984 14.5299 63 14V12C62.9984 11.4701 62.7872 10.9623 62.4125 10.5875C62.0377 10.2128 61.5299 10.0016 61 10H48C47.4701 10.0016 46.9623 10.2128 46.5875 10.5875C46.2128 10.9623 46.0016 11.4701 46 12V14C46.0016 14.5299 46.2128 15.0377 46.5875 15.4125C46.9623 15.7872 47.4701 15.9984 48 16H51V18H29V16H32C32.5299 15.9984 33.0377 15.7872 33.4125 15.4125C33.7872 15.0377 33.9984 14.5299 34 14V12C33.9984 11.4701 33.7872 10.9623 33.4125 10.5875C33.0377 10.2128 32.5299 10.0016 32 10H19C18.4701 10.0016 17.9623 10.2128 17.5875 10.5875C17.2128 10.9623 17.0016 11.4701 17 12V14C17.0016 14.5299 17.2128 15.0377 17.5875 15.4125C17.9623 15.7872 18.4701 15.9984 19 16H22V18H15C13.6739 18 12.4021 18.5268 11.4645 19.4645C10.5268 20.4021 10 21.6739 10 23V50C10 51.3261 10.5268 52.5979 11.4645 53.5355C12.4021 54.4732 13.6739 55 15 55H25V57C25.0024 57.7949 25.3192 58.5566 25.8813 59.1187C26.4434 59.6808 27.2051 59.9976 28 60H33V69C33 69.2652 33.1054 69.5196 33.2929 69.7071C33.4804 69.8946 33.7348 70 34 70H46C46.2652 70 46.5196 69.8946 46.7071 69.7071C46.8946 69.5196 47 69.2652 47 69V60H52C52.7949 59.9976 53.5566 59.6808 54.1187 59.1187C54.6808 58.5566 54.9976 57.7949 55 57V55H65C66.3261 55 67.5979 54.4732 68.5355 53.5355C69.4732 52.5979 70 51.3261 70 50V23C70 21.6739 69.4732 20.4021 68.5355 19.4645C67.5979 18.5268 66.3261 18 65 18ZM68 49H12V23C12.0024 22.2051 12.3192 21.4434 12.8813 20.8813C13.4434 20.3192 14.2051 20.0024 15 20H65C65.7949 20.0024 66.5566 20.3192 67.1187 20.8813C67.6808 21.4434 67.9976 22.2051 68 23V49Z" fill="#F1EDF3"/>
<path d="M34.375 33.4375C36.4461 33.4375 38.125 31.7586 38.125 29.6875C38.125 27.6164 36.4461 25.9375 34.375 25.9375C32.3039 25.9375 30.625 27.6164 30.625 29.6875C30.625 31.7586 32.3039 33.4375 34.375 33.4375Z" fill="#F1EDF3"/>
<path d="M45.625 44.6875C47.6961 44.6875 49.375 43.0086 49.375 40.9375C49.375 38.8664 47.6961 37.1875 45.625 37.1875C43.5539 37.1875 41.875 38.8664 41.875 40.9375C41.875 43.0086 43.5539 44.6875 45.625 44.6875Z" fill="#F1EDF3"/>
</g>
<defs>
<clipPath id="clip0_121_9">
<rect width="60" height="60" fill="white" transform="translate(10 10)"/>
</clipPath>
</defs>
</svg>

<svg width="80" height="80" fill="none" xmlns="http://www.w3.org/2000/svg"><rect width="80" height="80" rx="5" fill="#D1327F"/><g clip-path="url(#a)" fill="#F1EDF3"><path d="M65 18h-7v-2h3a2.006 2.006 0 0 0 2-2v-2a2.006 2.006 0 0 0-2-2H48a2.006 2.006 0 0 0-2 2v2a2.006 2.006 0 0 0 2 2h3v2H29v-2h3a2.006 2.006 0 0 0 2-2v-2a2.006 2.006 0 0 0-2-2H19a2.006 2.006 0 0 0-2 2v2a2.006 2.006 0 0 0 2 2h3v2h-7a5 5 0 0 0-5 5v27a5 5 0 0 0 5 5h10v2a3.01 3.01 0 0 0 3 3h5v9a1 1 0 0 0 1 1h12a1 1 0 0 0 1-1v-9h5a3.01 3.01 0 0 0 3-3v-2h10a5 5 0 0 0 5-5V23a5 5 0 0 0-5-5Zm3 31H12V23a3.01 3.01 0 0 1 3-3h50a3.01 3.01 0 0 1 3 3v26Z"/><path d="M34.375 33.438a3.75 3.75 0 1 0 0-7.5 3.75 3.75 0 0 0 0 7.5Zm11.25 11.25a3.75 3.75 0 1 0 0-7.5 3.75 3.75 0 0 0 0 7.5Z"/></g><defs><clipPath id="a"><path fill="#fff" transform="translate(10 10)" d="M0 0h60v60H0z"/></clipPath></defs></svg>
